client/src/assets/images/logo.svg

<svg xmlns="http://www.w3.org/2000/svg" width="729" height="160" fill="none"><path fill="#CFCFCF" d="m569.5 13.5-4-13-4 13h8Zm-27.5 130L565 91l-21-77.5L526.5 65l15.5 78.5Zm56-35.5-5-17-25 52.5 5 16.5 25-52Z"/><path fill="#929292" d="M593 91h-28l-23 52.5h26L593 91Z"/><path fill="#828282" d="m661 84.5 33.5-58h-100l-16 58H661Z"/><path fill="#CFCFCF" d="m670 76-9-19-20.5 40.5 10.5 16L670 76Z"/><path fill="#929292" d="M702.5 91H729l-40 53h-22l35.5-53Z"/><path fill="#959595" d="m673 160 37.5-52H598l-25 52h100Zm-126-52h-53l-15 52h50.5l17.5-52Z"/><path fill="#858585" d="M640.5 97.5 661 57h-27.5l-19 40 26 .5Z"/><path fill="#CFCFCF" d="m633.5 57-6-15L610 80.5l4.5 16.5 19-40Zm-161-29L476 .5l5.5 27.5h-9Zm21.5 80-6.5-35.5-14.5 57 6 30.5 15-52Z"/><path fill="#929292" d="M473 129.5h-22.5l10-57h27l-14.5 57Z"/><path fill="#CFCFCF" d="m449.5 118 8.5-62c.833 5.167 2.5 15.7 2.5 16.5 0 .8-6.333 38.333-10 57l-1-11.5Z"/><path fill="#858585" d="M458 56h-29.5l2 52-.7 10h19.7l8.5-62Z"/><path fill="#959595" d="M379 160v-52h51.5l-3.5 52h-48Z"/><path fill="#929292" d="M331.5 91H360v52.5h-25s-2.5-35-3.5-52.5Z"/><path fill="#CFCFCF" d="M335 143.5 331.5 91l-1 17 4 52 .5-16.5ZM211.5 74 196 13.5l-12.5 40 20.5 62 7.5-41.5Zm-28 41.5-25-62L152 70l25.5 58.5 6-13Z"/><path fill="#8C8C8C" d="m183.5 53.5 20.5 62h-20.5l-25-62h25Z"/><path fill="#929292" d="M213 143.5 195.5 91H223l10.5 52.5H213Z"/><path fill="#959595" d="m91 160-35-52.5H.5L40 160h51Zm61-90H72.5l32.5 58.5h72.5L152 70Z"/><path fill="#CFCFCF" d="M105 128.5 72.5 70 56 107.5 91 160l14-31.5Z"/><path fill="#fff" d="M544 13.5h25.5l-4-13H658l6 13h24l6.5 13h-100l18 49.5H670l-9-19h-27.5l-6-15H679l7 15h26l17 34h-26.5l8 17H598l-5-17h-28l-21-77.5ZM424.816.5H379V108h51.5l-2-52H458l2.5 16.5h27L494 108h53L521 .5h-45l5.5 27.5H454l-2.5-14.5h-26l-.684-13ZM60 1h116l-4.287 12.5H196l-12.5 40h-25L152 70H72.5L56 107.5H.5l43-77L60 1Z"/><path fill="#CFCFCF" d="M179.5 13.5 176 1l-4.289 12.5h7.789Z"/><path fill="#858585" d="m103 42-7.5-19.5H147L138.635 42H103Z"/><path fill="#CFCFCF" d="M103 42H86.5l9-19.5L103 42Z"/><path fill="#959595" d="M233.5 160 219 108h111.5l4 52h-101Z"/><path fill="#858585" d="M315 24h-53.5l4 46h45l4.5-46Z"/><path fill="#CFCFCF" d="m264 78 1.5-8-4-46-11 54H264Z"/><path fill="#fff" fill-rule="evenodd" d="m330.5 108 1-17H360V13h-24l.5-12.5h-93L241 13h-23.5l-22 78H223l-4 17h111.5Zm-21-30 5.5-54h-53.5l-11 54h59Z" clip-rule="evenodd"/><path fill="#CFCFCF" d="m569.5 13.5-4-13-4 13h8Zm-27.5 130L565 91l-21-77.5L526.5 65l15.5 78.5Zm56-35.5-5-17-25 52.5 5 16.5 25-52Z"/><path fill="#929292" d="M593 91h-28l-23 52.5h26L593 91Z"/><path fill="#828282" d="m661 84.5 33.5-58h-100l-16 58H661Z"/><path fill="#CFCFCF" d="m670 76-9-19-20.5 40.5 10.5 16L670 76Z"/><path fill="#929292" d="M702.5 91H729l-40 53h-22l35.5-53Z"/><path fill="#959595" d="m673 160 37.5-52H598l-25 52h100Zm-126-52h-53l-15 52h50.5l17.5-52Z"/><path fill="#858585" d="M640.5 97.5 661 57h-27.5l-19 40 26 .5Z"/><path fill="#CFCFCF" d="m633.5 57-6-15L610 80.5l4.5 16.5 19-40Zm-161-29L476 .5l5.5 27.5h-9Zm21.5 80-6.5-35.5-14.5 57 6 30.5 15-52Z"/><path fill="#929292" d="M473 129.5h-22.5l10-57h27l-14.5 57Z"/><path fill="#CFCFCF" d="m449.5 118 8.5-62c.833 5.167 2.5 15.7 2.5 16.5 0 .8-6.333 38.333-10 57l-1-11.5Z"/><path fill="#858585" d="M458 56h-29.5l2 52-.7 10h19.7l8.5-62Z"/><path fill="#959595" d="M379 160v-52h51.5l-3.5 52h-48Z"/><path fill="#929292" d="M331.5 91H360v52.5h-25s-2.5-35-3.5-52.5Z"/><path fill="#CFCFCF" d="M335 143.5 331.5 91l-1 17 4 52 .5-16.5ZM211.5 74 196 13.5l-12.5 40 20.5 62 7.5-41.5Zm-28 41.5-25-62L152 70l25.5 58.5 6-13Z"/><path fill="#8C8C8C" d="m183.5 53.5 20.5 62h-20.5l-25-62h25Z"/><path fill="#929292" d="M213 143.5 195.5 91H223l10.5 52.5H213Z"/><path fill="#959595" d="m91 160-35-52.5H.5L40 160h51Zm61-90H72.5l32.5 58.5h72.5L152 70Z"/><path fill="#CFCFCF" d="M105 128.5 72.5 70 56 107.5 91 160l14-31.5Z"/><path fill="#fff" d="M544 13.5h25.5l-4-13H658l6 13h24l6.5 13h-100l18 49.5H670l-9-19h-27.5l-6-15H679l7 15h26l17 34h-26.5l8 17H598l-5-17h-28l-21-77.5ZM424.816.5H379V108h51.5l-2-52H458l2.5 16.5h27L494 108h53L521 .5h-45l5.5 27.5H454l-2.5-14.5h-26l-.684-13ZM60 1h116l-4.287 12.5H196l-12.5 40h-25L152 70H72.5L56 107.5H.5l43-77L60 1Z"/><path fill="#CFCFCF" d="M179.5 13.5 176 1l-4.289 12.5h7.789Z"/><path fill="#858585" d="m103 42-7.5-19.5H147L138.635 42H103Z"/><path fill="#CFCFCF" d="M103 42H86.5l9-19.5L103 42Z"/><path fill="#959595" d="M233.5 160 219 108h111.5l4 52h-101Z"/><path fill="#858585" d="M315 24h-53.5l4 46h45l4.5-46Z"/><path fill="#CFCFCF" d="m264 78 1.5-8-4-46-11 54H264Z"/><path fill="#fff" fill-rule="evenodd" d="m330.5 108 1-17H360V13h-24l.5-12.5h-93L241 13h-23.5l-22 78H223l-4 17h111.5Zm-21-30 5.5-54h-53.5l-11 54h59Z" clip-rule="evenodd"/><path fill="#CFCFCF" d="m569.5 13.5-4-13-4 13h8Zm-27.5 130L565 91l-21-77.5L526.5 65l15.5 78.5Zm56-35.5-5-17-25 52.5 5 16.5 25-52Z"/><path fill="#929292" d="M593 91h-28l-23 52.5h26L593 91Z"/><path fill="#828282" d="m661 84.5 33.5-58h-100l-16 58H661Z"/><path fill="#CFCFCF" d="m670 76-9-19-20.5 40.5 10.5 16L670 76Z"/><path fill="#929292" d="M702.5 91H729l-40 53h-22l35.5-53Z"/><path fill="#959595" d="m673 160 37.5-52H598l-25 52h100Zm-126-52h-53l-15 52h50.5l17.5-52Z"/><path fill="#858585" d="M640.5 97.5 661 57h-27.5l-19 40 26 .5Z"/><path fill="#CFCFCF" d="m633.5 57-6-15L610 80.5l4.5 16.5 19-40Zm-161-29L476 .5l5.5 27.5h-9Zm21.5 80-6.5-35.5-14.5 57 6 30.5 15-52Z"/><path fill="#929292" d="M473 129.5h-22.5l10-57h27l-14.5 57Z"/><path fill="#CFCFCF" d="m449.5 118 8.5-62c.833 5.167 2.5 15.7 2.5 16.5 0 .8-6.333 38.333-10 57l-1-11.5Z"/><path fill="#858585" d="M458 56h-29.5l2 52-.7 10h19.7l8.5-62Z"/><path fill="#959595" d="M379 160v-52h51.5l-3.5 52h-48Z"/><path fill="#929292" d="M331.5 91H360v52.5h-25s-2.5-35-3.5-52.5Z"/><path fill="#CFCFCF" d="M335 143.5 331.5 91l-1 17 4 52 .5-16.5Z"/><path fill="#D9D9D9" d="M336.5 13V.5L336 13h.5Z"/><path fill="#CFCFCF" d="M211.5 74 196 13.5l-12.5 40 20.5 62 7.5-41.5Zm-28 41.5-25-62L152 70l25.5 58.5 6-13Z"/><path fill="#8C8C8C" d="m183.5 53.5 20.5 62h-20.5l-25-62h25Z"/><path fill="#929292" d="M213 143.5 195.5 91H223l10.5 52.5H213Z"/><path fill="#959595" d="m91 160-35-52.5H.5L40 160h51Zm61-90H72.5l32.5 58.5h72.5L152 70Z"/><path fill="#CFCFCF" d="M105 128.5 72.5 70 56 107.5 91 160l14-31.5Z"/><path fill="#fff" d="M544 13.5h25.5l-4-13H658l6 13h24l6.5 13h-100l18 49.5H670l-9-19h-27.5l-6-15H679l7 15h26l17 34h-26.5l8 17H598l-5-17h-28l-21-77.5ZM424.816.5H379V108h51.5l-2-52H458l2.5 16.5h27L494 108h53L521 .5h-45l5.5 27.5H454l-2.5-14.5h-26l-.684-13ZM60 1h116l-4.287 12.5H196l-12.5 40h-25L152 70H72.5L56 107.5H.5l43-77L60 1Z"/><path fill="#CFCFCF" d="M179.5 13.5 176 1l-4.289 12.5h7.789Z"/><path fill="#858585" d="m103 42-7.5-19.5H147L138.635 42H103Z"/><path fill="#CFCFCF" d="M103 42H86.5l9-19.5L103 42Z"/><path fill="#959595" d="M233.5 160 219 108h111.5l4 52h-101Z"/><path fill="#858585" d="M315 24h-53.5l4 46h45l4.5-46Z"/><path fill="#CFCFCF" d="m264 78 1.5-8-4-46-11 54H264Z"/><path fill="#fff" fill-rule="evenodd" d="m330.5 108 1-17H360V13h-24l.5-12.5h-93L241 13h-23.5l-22 78H223l-4 17h111.5Zm-21-30 5.5-54h-53.5l-11 54h59Z" clip-rule="evenodd"/></svg>

<svg width="729" height="160" viewBox="0 0 729 160" fill="none" xmlns="http://www.w3.org/2000/svg">
<path d="M569.5 13.5L565.5 0.5L561.5 13.5H569.5Z" fill="#CFCFCF"/>
<path d="M542 143.5L565 91L544 13.5L526.5 65L542 143.5Z" fill="#CFCFCF"/>
<path d="M598 108L593 91L568 143.5L573 160L598 108Z" fill="#CFCFCF"/>
<path d="M593 91H565L542 143.5H568L593 91Z" fill="#929292"/>
<path d="M661 84.5L694.5 26.5H594.5L578.5 84.5H661Z" fill="#828282"/>
<path d="M670 76L661 57L640.5 97.5L651 113.5L670 76Z" fill="#CFCFCF"/>
<path d="M702.5 91H729L689 144H667L702.5 91Z" fill="#929292"/>
<path d="M673 160L710.5 108H598L573 160H673Z" fill="#959595"/>
<path d="M547 108H494L479 160H529.5L547 108Z" fill="#959595"/>
<path d="M640.5 97.5L661 57H633.5L614.5 97L640.5 97.5Z" fill="#858585"/>
<path d="M633.5 57L627.5 42L610 80.5L614.5 97L633.5 57Z" fill="#CFCFCF"/>
<path d="M472.5 28L476 0.5L481.5 28H472.5Z" fill="#CFCFCF"/>
<path d="M494 108L487.5 72.5L473 129.5L479 160L494 108Z" fill="#CFCFCF"/>
<path d="M473 129.5H450.5L460.5 72.5H487.5L473 129.5Z" fill="#929292"/>
<path d="M449.5 118L458 56C458.833 61.1667 460.5 71.7 460.5 72.5C460.5 73.3 454.167 110.833 450.5 129.5L449.5 118Z" fill="#CFCFCF"/>
<path d="M458 56H428.5L430.5 108L429.8 118H449.5L458 56Z" fill="#858585"/>
<path d="M379 160V108H430.5L427 160H379Z" fill="#959595"/>
<path d="M331.5 91H360V143.5H335C335 143.5 332.5 108.5 331.5 91Z" fill="#929292"/>
<path d="M335 143.5L331.5 91L330.5 108L334.5 160L335 143.5Z" fill="#CFCFCF"/>
<path d="M211.5 74L196 13.5L183.5 53.5L204 115.5L211.5 74Z" fill="#CFCFCF"/>
<path d="M183.5 115.5L158.5 53.5L152 70L177.5 128.5L183.5 115.5Z" fill="#CFCFCF"/>
<path d="M183.5 53.5L204 115.5H183.5L158.5 53.5H183.5Z" fill="#8C8C8C"/>
<path d="M213 143.5L195.5 91H223L233.5 143.5H213Z" fill="#929292"/>
<path d="M91 160L56 107.5H0.5L40 160H91Z" fill="#959595"/>
<path d="M152 70H72.5L105 128.5H177.5L152 70Z" fill="#959595"/>
<path d="M105 128.5L72.5 70L56 107.5L91 160L105 128.5Z" fill="#CFCFCF"/>
<path d="M544 13.5H569.5L565.5 0.5H658L664 13.5H688L694.5 26.5H594.5L612.5 76H670L661 57H633.5L627.5 42H679L686 57H712L729 91H702.5L710.5 108H598L593 91H565L544 13.5Z" fill="white"/>
<path d="M424.816 0.5H379V108H430.5L428.5 56H458L460.5 72.5H487.5L494 108H547L521 0.5H476L481.5 28H454L451.5 13.5H425.5L424.816 0.5Z" fill="white"/>
<path d="M60 1H176L171.713 13.5H196L183.5 53.5H158.5L152 70H72.5L56 107.5H0.5L43.5 30.5L60 1Z" fill="white"/>
<path d="M179.5 13.5L176 1L171.711 13.5H179.5Z" fill="#CFCFCF"/>
<path d="M103 42L95.5 22.5H147L138.635 42H103Z" fill="#858585"/>
<path d="M103 42H86.5L95.5 22.5L103 42Z" fill="#CFCFCF"/>
<path d="M233.5 160L219 108H330.5L334.5 160H233.5Z" fill="#959595"/>
<path d="M315 24H261.5L265.5 70H310.5L315 24Z" fill="#858585"/>
<path d="M264 78L265.5 70L261.5 24L250.5 78H264Z" fill="#CFCFCF"/>
<path fill-rule="evenodd" clip-rule="evenodd" d="M330.5 108L331.5 91H360V13H336L336.5 0.5H243.5L241 13H217.5L195.5 91H223L219 108H330.5ZM309.5 78L315 24H261.5L250.5 78H309.5Z" fill="white"/>
<path d="M569.5 13.5L565.5 0.5L561.5 13.5H569.5Z" fill="#CFCFCF"/>
<path d="M542 143.5L565 91L544 13.5L526.5 65L542 143.5Z" fill="#CFCFCF"/>
<path d="M598 108L593 91L568 143.5L573 160L598 108Z" fill="#CFCFCF"/>
<path d="M593 91H565L542 143.5H568L593 91Z" fill="#929292"/>
<path d="M661 84.5L694.5 26.5H594.5L578.5 84.5H661Z" fill="#828282"/>
<path d="M670 76L661 57L640.5 97.5L651 113.5L670 76Z" fill="#CFCFCF"/>
<path d="M702.5 91H729L689 144H667L702.5 91Z" fill="#929292"/>
<path d="M673 160L710.5 108H598L573 160H673Z" fill="#959595"/>
<path d="M547 108H494L479 160H529.5L547 108Z" fill="#959595"/>
<path d="M640.5 97.5L661 57H633.5L614.5 97L640.5 97.5Z" fill="#858585"/>
<path d="M633.5 57L627.5 42L610 80.5L614.5 97L633.5 57Z" fill="#CFCFCF"/>
<path d="M472.5 28L476 0.5L481.5 28H472.5Z" fill="#CFCFCF"/>
<path d="M494 108L487.5 72.5L473 129.5L479 160L494 108Z" fill="#CFCFCF"/>
<path d="M473 129.5H450.5L460.5 72.5H487.5L473 129.5Z" fill="#929292"/>
<path d="M449.5 118L458 56C458.833 61.1667 460.5 71.7 460.5 72.5C460.5 73.3 454.167 110.833 450.5 129.5L449.5 118Z" fill="#CFCFCF"/>
<path d="M458 56H428.5L430.5 108L429.8 118H449.5L458 56Z" fill="#858585"/>
<path d="M379 160V108H430.5L427 160H379Z" fill="#959595"/>
<path d="M331.5 91H360V143.5H335C335 143.5 332.5 108.5 331.5 91Z" fill="#929292"/>
<path d="M335 143.5L331.5 91L330.5 108L334.5 160L335 143.5Z" fill="#CFCFCF"/>
<path d="M211.5 74L196 13.5L183.5 53.5L204 115.5L211.5 74Z" fill="#CFCFCF"/>
<path d="M183.5 115.5L158.5 53.5L152 70L177.5 128.5L183.5 115.5Z" fill="#CFCFCF"/>
<path d="M183.5 53.5L204 115.5H183.5L158.5 53.5H183.5Z" fill="#8C8C8C"/>
<path d="M213 143.5L195.5 91H223L233.5 143.5H213Z" fill="#929292"/>
<path d="M91 160L56 107.5H0.5L40 160H91Z" fill="#959595"/>
<path d="M152 70H72.5L105 128.5H177.5L152 70Z" fill="#959595"/>
<path d="M105 128.5L72.5 70L56 107.5L91 160L105 128.5Z" fill="#CFCFCF"/>
<path d="M544 13.5H569.5L565.5 0.5H658L664 13.5H688L694.5 26.5H594.5L612.5 76H670L661 57H633.5L627.5 42H679L686 57H712L729 91H702.5L710.5 108H598L593 91H565L544 13.5Z" fill="white"/>
<path d="M424.816 0.5H379V108H430.5L428.5 56H458L460.5 72.5H487.5L494 108H547L521 0.5H476L481.5 28H454L451.5 13.5H425.5L424.816 0.5Z" fill="white"/>
<path d="M60 1H176L171.713 13.5H196L183.5 53.5H158.5L152 70H72.5L56 107.5H0.5L43.5 30.5L60 1Z" fill="white"/>
<path d="M179.5 13.5L176 1L171.711 13.5H179.5Z" fill="#CFCFCF"/>
<path d="M103 42L95.5 22.5H147L138.635 42H103Z" fill="#858585"/>
<path d="M103 42H86.5L95.5 22.5L103 42Z" fill="#CFCFCF"/>
<path d="M233.5 160L219 108H330.5L334.5 160H233.5Z" fill="#959595"/>
<path d="M315 24H261.5L265.5 70H310.5L315 24Z" fill="#858585"/>
<path d="M264 78L265.5 70L261.5 24L250.5 78H264Z" fill="#CFCFCF"/>
<path fill-rule="evenodd" clip-rule="evenodd" d="M330.5 108L331.5 91H360V13H336L336.5 0.5H243.5L241 13H217.5L195.5 91H223L219 108H330.5ZM309.5 78L315 24H261.5L250.5 78H309.5Z" fill="white"/>
<path d="M569.5 13.5L565.5 0.5L561.5 13.5H569.5Z" fill="#CFCFCF"/>
<path d="M542 143.5L565 91L544 13.5L526.5 65L542 143.5Z" fill="#CFCFCF"/>
<path d="M598 108L593 91L568 143.5L573 160L598 108Z" fill="#CFCFCF"/>
<path d="M593 91H565L542 143.5H568L593 91Z" fill="#929292"/>
<path d="M661 84.5L694.5 26.5H594.5L578.5 84.5H661Z" fill="#828282"/>
<path d="M670 76L661 57L640.5 97.5L651 113.5L670 76Z" fill="#CFCFCF"/>
<path d="M702.5 91H729L689 144H667L702.5 91Z" fill="#929292"/>
<path d="M673 160L710.5 108H598L573 160H673Z" fill="#959595"/>
<path d="M547 108H494L479 160H529.5L547 108Z" fill="#959595"/>
<path d="M640.5 97.5L661 57H633.5L614.5 97L640.5 97.5Z" fill="#858585"/>
<path d="M633.5 57L627.5 42L610 80.5L614.5 97L633.5 57Z" fill="#CFCFCF"/>
<path d="M472.5 28L476 0.5L481.5 28H472.5Z" fill="#CFCFCF"/>
<path d="M494 108L487.5 72.5L473 129.5L479 160L494 108Z" fill="#CFCFCF"/>
<path d="M473 129.5H450.5L460.5 72.5H487.5L473 129.5Z" fill="#929292"/>
<path d="M449.5 118L458 56C458.833 61.1667 460.5 71.7 460.5 72.5C460.5 73.3 454.167 110.833 450.5 129.5L449.5 118Z" fill="#CFCFCF"/>
<path d="M458 56H428.5L430.5 108L429.8 118H449.5L458 56Z" fill="#858585"/>
<path d="M379 160V108H430.5L427 160H379Z" fill="#959595"/>
<path d="M331.5 91H360V143.5H335C335 143.5 332.5 108.5 331.5 91Z" fill="#929292"/>
<path d="M335 143.5L331.5 91L330.5 108L334.5 160L335 143.5Z" fill="#CFCFCF"/>
<path d="M336.5 13V0.5L336 13H336.5Z" fill="#D9D9D9"/>
<path d="M211.5 74L196 13.5L183.5 53.5L204 115.5L211.5 74Z" fill="#CFCFCF"/>
<path d="M183.5 115.5L158.5 53.5L152 70L177.5 128.5L183.5 115.5Z" fill="#CFCFCF"/>
<path d="M183.5 53.5L204 115.5H183.5L158.5 53.5H183.5Z" fill="#8C8C8C"/>
<path d="M213 143.5L195.5 91H223L233.5 143.5H213Z" fill="#929292"/>
<path d="M91 160L56 107.5H0.5L40 160H91Z" fill="#959595"/>
<path d="M152 70H72.5L105 128.5H177.5L152 70Z" fill="#959595"/>
<path d="M105 128.5L72.5 70L56 107.5L91 160L105 128.5Z" fill="#CFCFCF"/>
<path d="M544 13.5H569.5L565.5 0.5H658L664 13.5H688L694.5 26.5H594.5L612.5 76H670L661 57H633.5L627.5 42H679L686 57H712L729 91H702.5L710.5 108H598L593 91H565L544 13.5Z" fill="white"/>
<path d="M424.816 0.5H379V108H430.5L428.5 56H458L460.5 72.5H487.5L494 108H547L521 0.5H476L481.5 28H454L451.5 13.5H425.5L424.816 0.5Z" fill="white"/>
<path d="M60 1H176L171.713 13.5H196L183.5 53.5H158.5L152 70H72.5L56 107.5H0.5L43.5 30.5L60 1Z" fill="white"/>
<path d="M179.5 13.5L176 1L171.711 13.5H179.5Z" fill="#CFCFCF"/>
<path d="M103 42L95.5 22.5H147L138.635 42H103Z" fill="#858585"/>
<path d="M103 42H86.5L95.5 22.5L103 42Z" fill="#CFCFCF"/>
<path d="M233.5 160L219 108H330.5L334.5 160H233.5Z" fill="#959595"/>
<path d="M315 24H261.5L265.5 70H310.5L315 24Z" fill="#858585"/>
<path d="M264 78L265.5 70L261.5 24L250.5 78H264Z" fill="#CFCFCF"/>
<path fill-rule="evenodd" clip-rule="evenodd" d="M330.5 108L331.5 91H360V13H336L336.5 0.5H243.5L241 13H217.5L195.5 91H223L219 108H330.5ZM309.5 78L315 24H261.5L250.5 78H309.5Z" fill="white"/>
</svg>
